X: 21003
M: 2/4
L: 1/16
K: Bb
V: 1 name="3"
c2cA f2fd | c2cA F2GF | =EFGA BGcB | B4 A2AB |\
c2cA f2fd | c2cA F4 | =EFGA BAGE | F2A2"^D.C."F2 |]
de |\
f4f2d2 | g2f2e2d2 | c2c2 cBcd | BABc dcde |\
f4f2d2 | g2f2e2d2 | c2c2 cBcd | B2d2"^D.C."B2 |]


